X: 1
T: L'impasse
C: Gilles Chabenat
R: mazurka
S: handout at NEFFA 2016 from Mark Vidor p.12, transcription by Angelo Girardi
Z: 2016 John Chambers <jc:trillian.mit.edu>
M: 9/8
L: 1/16
K: Em
"A"|:\
"Em"B2G E2A F2G- | "C"G2F G2A B2c |\
"Em"B2G E2A F2G- | "C"G6- G2z :|\
|:\
"G"B2A G2A B2c | "D"d3- d2c B2A |
"F"c2B A2G A2B- | "Em"B3 G2F G2A |\
"G"B2A G2A Bce | "D"d3- d2c B2A |\
"F"c2B A2G- GAB | "Em"E6- E2z :|
